src/assets/icons/list-check.svg

<svg width="14" height="14" viewBox="0 0 14 14" fill="none" xmlns="http://www.w3.org/2000/svg">
<g id="list-check">
<path id="Vector" fill-rule="evenodd" clip-rule="evenodd" d="M3.42426 3.02426C3.65858 2.78995 3.65858 2.41005 3.42426 2.17574C3.18995 1.94142 2.81005 1.94142 2.57574 2.17574L1.4 3.35147L1.02426 2.97574C0.78995 2.74142 0.41005 2.74142 0.175736 2.97574C-0.0585786 3.21005 -0.0585786 3.58995 0.175736 3.82426L0.975736 4.62426C1.21005 4.85858 1.58995 4.85858 1.82426 4.62426L3.42426 3.02426ZM5.4 3.2C5.06863 3.2 4.8 3.46863 4.8 3.8C4.8 4.13137 5.06863 4.4 5.4 4.4H13.4C13.7314 4.4 14 4.13137 14 3.8C14 3.46863 13.7314 3.2 13.4 3.2H5.4ZM5.4 6.4C5.06863 6.4 4.8 6.66863 4.8 7C4.8 7.33137 5.06863 7.6 5.4 7.6H13.4C13.7314 7.6 14 7.33137 14 7C14 6.66863 13.7314 6.4 13.4 6.4H5.4ZM13.4 11.2H5.5C5.16863 11.2 4.9 10.9314 4.9 10.6C4.9 10.2686 5.16863 10 5.5 10H13.4C13.7314 10 14 10.2686 14 10.6C14 10.9314 13.7314 11.2 13.4 11.2ZM3.42426 5.37574C3.65858 5.61005 3.65858 5.98995 3.42426 6.22426L1.82426 7.82426C1.58995 8.05858 1.21005 8.05858 0.975736 7.82426L0.175736 7.02426C-0.0585786 6.78995 -0.0585786 6.41005 0.175736 6.17574C0.41005 5.94142 0.78995 5.94142 1.02426 6.17574L1.4 6.55147L2.57574 5.37574C2.81005 5.14142 3.18995 5.14142 3.42426 5.37574ZM3.42426 10.2243C3.65858 9.98995 3.65858 9.61005 3.42426 9.37574C3.18995 9.14142 2.81005 9.14142 2.57574 9.37574L1.4 10.5515L1.02426 10.1757C0.78995 9.94142 0.41005 9.94142 0.175736 10.1757C-0.0585786 10.4101 -0.0585786 10.79 0.175736 11.0243L0.975736 11.8243C1.21005 12.0586 1.58995 12.0586 1.82426 11.8243L3.42426 10.2243Z" fill="black"/>
</g>
</svg>

<svg xmlns="http://www.w3.org/2000/svg" fill="none" viewBox="0 0 14 14"><path fill="#000" fill-rule="evenodd" d="M3.424 3.024a.6.6 0 1 0-.848-.848L1.4 3.35l-.376-.375a.6.6 0 1 0-.848.848l.8.8a.6.6 0 0 0 .848 0zM5.4 3.2a.6.6 0 0 0 0 1.2h8a.6.6 0 1 0 0-1.2zm0 3.2a.6.6 0 0 0 0 1.2h8a.6.6 0 1 0 0-1.2zm8 4.8H5.5a.6.6 0 1 1 0-1.2h7.9a.6.6 0 1 1 0 1.2M3.424 5.376a.6.6 0 0 1 0 .848l-1.6 1.6a.6.6 0 0 1-.848 0l-.8-.8a.6.6 0 1 1 .848-.848l.376.375 1.176-1.175a.6.6 0 0 1 .848 0m0 4.848a.6.6 0 0 0-.848-.848L1.4 10.552l-.376-.376a.6.6 0 0 0-.848.848l.8.8a.6.6 0 0 0 .848 0z" clip-rule="evenodd"/></svg>
